static/assets/img/icons/theme/media/pause.svg

<svg height="24" viewBox="0 0 24 24" width="24" xmlns="http://www.w3.org/2000/svg"><g fill="none" fill-rule="evenodd"><path d="m0 0h24v24h-24z" opacity="0"/><path d="m8 6h2c.5522847 0 1 .44771525 1 1v10c0 .5522847-.4477153 1-1 1h-2c-.55228475 0-1-.4477153-1-1v-10c0-.55228475.44771525-1 1-1zm6 0h2c.5522847 0 1 .44771525 1 1v10c0 .5522847-.4477153 1-1 1h-2c-.5522847 0-1-.4477153-1-1v-10c0-.55228475.4477153-1 1-1z" fill="#000"/></g></svg>

<svg width="24px" height="24px" viewBox="0 0 24 24" version="1.1" xmlns="http://www.w3.org/2000/svg" xmlns:xlink="http://www.w3.org/1999/xlink">
    <title>Icon For Pause</title>
    <g stroke="none" stroke-width="1" fill="none" fill-rule="evenodd">
        <rect opacity="0" x="0" y="0" width="24" height="24"></rect>
        <path d="M8,6 L10,6 C10.5522847,6 11,6.44771525 11,7 L11,17 C11,17.5522847 10.5522847,18 10,18 L8,18 C7.44771525,18 7,17.5522847 7,17 L7,7 C7,6.44771525 7.44771525,6 8,6 Z M14,6 L16,6 C16.5522847,6 17,6.44771525 17,7 L17,17 C17,17.5522847 16.5522847,18 16,18 L14,18 C13.4477153,18 13,17.5522847 13,17 L13,7 C13,6.44771525 13.4477153,6 14,6 Z" fill="#000000"></path>
    </g>
</svg>
